_includes/icons/color-female-user.svg

<svg fill="#666" height="50" viewBox="0 0 48 48" width="50" xmlns="http://www.w3.org/2000/svg"><path d="m35 44s-6-2-11-2-11 2-11 2v-12h22z" fill="#bf360c"/><path d="m14 28c0 2.210938-1.789062 4-4 4-2.210937 0-4-1.789062-4-4 0-2.210937 1.789063-4 4-4 2.210938 0 4 1.789063 4 4" fill="#ffa726"/><path d="m42 28c0 2.210938-1.789062 4-4 4-2.210937 0-4-1.789062-4-4 0-2.210937 1.789063-4 4-4 2.210938 0 4 1.789063 4 4" fill="#ffa726"/><path d="m38 18c0-12.726562-28-8.285156-28 0v9c0 8.285156 6.269531 15 14 15s14-6.714844 14-15z" fill="#ffb74d"/><path d="m32 26c0 1.105469-.894531 2-2 2s-2-.894531-2-2 .894531-2 2-2 2 .894531 2 2" fill="#784719"/><path d="m20 26c0 1.105469-.894531 2-2 2s-2-.894531-2-2 .894531-2 2-2 2 .894531 2 2" fill="#784719"/><path d="m24 4c-8.503906 0-21 5-21.125 32l10.125 8v-20l16.75-9 5.125 7 .125 22 10-8c0-12-.542969-29-15-29l-2-3z" fill="#ff5722"/><path d="m19 35h10s-2 3-5 3-5-3-5-3z" fill="#fb8c00"/></svg>

<svg xmlns="http://www.w3.org/2000/svg" viewBox="0 0 48 48" width="50" height="50" fill="#666"><path d="M 35 44 C 35 44 29 42 24 42 C 19 42 13 44 13 44 L 13 32 L 35 32 Z" fill="#bf360c"/><path d="M 14 28 C 14 30.210938 12.210938 32 10 32 C 7.789063 32 6 30.210938 6 28 C 6 25.789063 7.789063 24 10 24 C 12.210938 24 14 25.789063 14 28" fill="#ffa726"/><path d="M 42 28 C 42 30.210938 40.210938 32 38 32 C 35.789063 32 34 30.210938 34 28 C 34 25.789063 35.789063 24 38 24 C 40.210938 24 42 25.789063 42 28" fill="#ffa726"/><path d="M 38 18 C 38 5.273438 10 9.714844 10 18 L 10 27 C 10 35.285156 16.269531 42 24 42 C 31.730469 42 38 35.285156 38 27 Z" fill="#ffb74d"/><path d="M 32 26 C 32 27.105469 31.105469 28 30 28 C 28.894531 28 28 27.105469 28 26 C 28 24.894531 28.894531 24 30 24 C 31.105469 24 32 24.894531 32 26" fill="#784719"/><path d="M 20 26 C 20 27.105469 19.105469 28 18 28 C 16.894531 28 16 27.105469 16 26 C 16 24.894531 16.894531 24 18 24 C 19.105469 24 20 24.894531 20 26" fill="#784719"/><path d="M 24 4 C 15.496094 4 3 9 2.875 36 L 13 44 L 13 24 L 29.75 15 L 34.875 22 L 35 44 L 45 36 C 45 24 44.457031 7 30 7 L 28 4 Z" fill="#ff5722"/><path d="M 19 35 L 29 35 C 29 35 27 38 24 38 C 21 38 19 35 19 35 Z" fill="#fb8c00"/></svg>
